src/images/ico/images/nec_chart.svg

<svg xmlns="http://www.w3.org/2000/svg" viewBox="-12091 -17675 900 400"><defs><style>.cls-1,.cls-8{fill:#fff}.cls-1,.cls-2{stroke:#95989a}.cls-10,.cls-2{fill:none}.cls-3{fill:#2a3052}.cls-3,.cls-4{font-size:11px}.cls-3,.cls-4,.cls-5,.cls-8{font-family:Roboto-Regular,Roboto}.cls-4,.cls-5{fill:#95989a}.cls-5,.cls-8{font-size:12px}.cls-6,.cls-7{fill:#e98024}.cls-7{opacity:.6}.cls-8{letter-spacing:.3em}.cls-9{stroke:none}</style></defs><g id="Group_460" data-name="Group 460" transform="translate(11709 565)"><g id="Rectangle_339" data-name="Rectangle 339" class="cls-1"><path class="cls-9" d="M0 0h900v400H0z" transform="translate(-23800 -18240)"/><path class="cls-10" d="M.5.5h899v399H.5z" transform="translate(-23800 -18240)"/></g><g id="Group_437" data-name="Group 437"><path id="Line_97" data-name="Line 97" class="cls-2" transform="translate(-23679.215 -18124.5)" d="M0 0h693.654"/><path id="Line_149" data-name="Line 149" class="cls-2" transform="translate(-23679.215 -18093.5)" d="M0 0h693.654"/><path id="Line_150" data-name="Line 150" class="cls-2" transform="translate(-23679.215 -18030.5)" d="M0 0h693.654"/><path id="Line_151" data-name="Line 151" class="cls-2" transform="translate(-23679.215 -17998.5)" d="M0 0h693.654"/><path id="Line_98" data-name="Line 98" class="cls-2" transform="translate(-23679.215 -18061.5)" d="M0 0h693.654"/><path id="Line_99" data-name="Line 99" class="cls-2" transform="translate(-23679.215 -17967.5)" d="M0 0h693.654"/><path id="Line_100" data-name="Line 100" class="cls-2" transform="translate(-23679.215 -17935.5)" d="M0 0h693.654"/><path id="Line_101" data-name="Line 101" class="cls-2" transform="translate(-23679.215 -17904.5)" d="M0 0h693.654"/><text id="Number_of_employees_and_contractors" data-name="Number of employees and contractors" class="cls-3" transform="translate(-23644 -18152)"><tspan x="0" y="0">Number of employees and contractors</tspan></text><text id="_2007" data-name="2007" class="cls-4" transform="translate(-23423 -17886)"><tspan x="0" y="0">2007</tspan></text><text id="_2003" data-name="2003" class="cls-4" transform="translate(-23587 -17886)"><tspan x="0" y="0">2003</tspan></text><text id="_2011" data-name="2011" class="cls-4" transform="translate(-23259 -17886)"><tspan x="0" y="0">2011</tspan></text><text id="_2001" data-name="2001" class="cls-4" transform="translate(-23669 -17886)"><tspan x="0" y="0">2001</tspan></text><text id="_2009" data-name="2009" class="cls-4" transform="translate(-23341 -17886)"><tspan x="0" y="0">2009</tspan></text><text id="_2005" data-name="2005" class="cls-4" transform="translate(-23505 -17886)"><tspan x="0" y="0">2005</tspan></text><text id="_2013" data-name="2013" class="cls-4" transform="translate(-23177 -17886)"><tspan x="0" y="0">2013</tspan></text><text id="_2008" data-name="2008" class="cls-4" transform="translate(-23382 -17886)"><tspan x="0" y="0">2008</tspan></text><text id="_2004" data-name="2004" class="cls-4" transform="translate(-23546 -17886)"><tspan x="0" y="0">2004</tspan></text><text id="_2012" data-name="2012" class="cls-4" transform="translate(-23218 -17886)"><tspan x="0" y="0">2012</tspan></text><text id="_2002" data-name="2002" class="cls-4" transform="translate(-23628 -17886)"><tspan x="0" y="0">2002</tspan></text><text id="_2010" data-name="2010" class="cls-4" transform="translate(-23300 -17886)"><tspan x="0" y="0">2010</tspan></text><text id="_2006" data-name="2006" class="cls-4" transform="translate(-23464 -17886)"><tspan x="0" y="0">2006</tspan></text><text id="_2014" data-name="2014" class="cls-4" transform="translate(-23136 -17886)"><tspan x="0" y="0">2014</tspan></text><text id="_2015" data-name="2015" class="cls-4" transform="translate(-23095 -17886)"><tspan x="0" y="0">2015</tspan></text><text id="_2016" data-name="2016" class="cls-4" transform="translate(-23054 -17886)"><tspan x="0" y="0">2016</tspan></text><text id="_2017" data-name="2017" class="cls-4" transform="translate(-23013 -17886)"><tspan x="0" y="0">2017</tspan></text><text id="_120" data-name="120" class="cls-4" transform="translate(-23696 -18089)"><tspan x="-18.584" y="0">120</tspan></text><text id="_80" data-name="80" class="cls-4" transform="translate(-23695 -18026)"><tspan x="-12.391" y="0">80</tspan></text><text id="_100" data-name="100" class="cls-4" transform="translate(-23695 -18057)"><tspan x="-18.589" y="0">100</tspan></text><text id="_140" data-name="140" class="cls-4" transform="translate(-23695 -18120)"><tspan x="-18.584" y="0">140</tspan></text><text id="_40" data-name="40" class="cls-4" transform="translate(-23695 -17963)"><tspan x="-12.391" y="0">40</tspan></text><text id="_60" data-name="60" class="cls-4" transform="translate(-23695 -17995)"><tspan x="-12.391" y="0">60</tspan></text><text id="_20" data-name="20" class="cls-4" transform="translate(-23695 -17932)"><tspan x="-12.391" y="0">20</tspan></text><text id="_0" data-name="0" class="cls-5" transform="translate(-23688 -17901)"><tspan x="-6.762" y="0">0</tspan></text><path id="Path_257" data-name="Path 257" class="cls-6" d="M0 0h26v13H0z" transform="translate(-23679 -18163)"/><path id="Rectangle_340" data-name="Rectangle 340" class="cls-6" transform="translate(-23094 -18038)" d="M0 0h23v133H0z"/><path id="Rectangle_341" data-name="Rectangle 341" class="cls-6" transform="translate(-23053 -18101)" d="M0 0h23v196H0z"/><path id="Rectangle_342" data-name="Rectangle 342" class="cls-7" transform="translate(-23012 -18114)" d="M0 0h23v209H0z"/><path id="Path_538" data-name="Path 538" class="cls-6" d="M0 .672h23V92.43H0z" transform="translate(-23135 -17997.43)"/><path id="Rectangle_344" data-name="Rectangle 344" class="cls-6" transform="translate(-23176 -17975)" d="M0 0h23v70H0z"/><path id="Path_258" data-name="Path 258" class="cls-6" d="M0-4.592h23v45.879H0z" transform="translate(-23217 -17946.287)"/><path id="Path_259" data-name="Path 259" class="cls-6" d="M0-4.523h23v66H0z" transform="translate(-23340 -17966.477)"/><path id="Path_260" data-name="Path 260" class="cls-6" d="M0 4.7h23v45.878H0z" transform="translate(-23423 -17955.578)"/><path id="Path_261" data-name="Path 261" class="cls-6" d="M0-1.99h23v44.338H0z" transform="translate(-23546 -17947.348)"/><path id="Rectangle_345" data-name="Rectangle 345" class="cls-6" transform="translate(-23587 -17936)" d="M0 0h23v31H0z"/><path id="Path_262" data-name="Path 262" class="cls-6" d="M0-1.059h23v36.664H0z" transform="translate(-23505 -17940.605)"/><path id="Path_263" data-name="Path 263" class="cls-6" d="M0-5.732h23V15.08H0z" transform="translate(-23628 -17920.08)"/><path id="Rectangle_346" data-name="Rectangle 346" class="cls-6" transform="translate(-23669 -17923)" d="M0 0h23v18H0z"/><path id="Path_264" data-name="Path 264" class="cls-6" d="M0 3.617h23v58.221H0z" transform="translate(-23382 -17966.838)"/><path id="Rectangle_347" data-name="Rectangle 347" class="cls-6" transform="translate(-23464 -17939)" d="M0 0h23v34H0z"/><path id="Path_265" data-name="Path 265" class="cls-6" d="M0-.943h23v48.82H0z" transform="translate(-23258 -17952.877)"/><path id="Path_266" data-name="Path 266" class="cls-6" d="M0-17.07h23v58.22H0z" transform="translate(-23299 -17946.15)"/><text id="projected" class="cls-8" transform="rotate(-90 -20483.5 2526)"><tspan x="18.714" y="13">projected</tspan></text></g></g></svg>

<svg xmlns="http://www.w3.org/2000/svg" viewBox="-12091 -17675 900 400">
    <defs>
        <style>
            .cls-1, .cls-8 {
            fill: #fff;
            }

            .cls-1, .cls-2 {
            stroke: #95989a;
            }

            .cls-10, .cls-2 {
            fill: none;
            }

            .cls-3 {
            fill: #2a3052;
            }

            .cls-3, .cls-4 {
            font-size: 11px;
            }

            .cls-3, .cls-4, .cls-5, .cls-8 {
            font-family: Roboto-Regular, Roboto;
            }

            .cls-4, .cls-5 {
            fill: #95989a;
            }

            .cls-5, .cls-8 {
            font-size: 12px;
            }

            .cls-6, .cls-7 {
            fill: #e98024;
            }

            .cls-7 {
            opacity: 0.6;
            }

            .cls-8 {
            letter-spacing: 0.3em;
            }

            .cls-9 {
            stroke: none;
            }
        </style>
    </defs>
    <g id="Group_460" data-name="Group 460" transform="translate(11709 565)">
        <g id="Rectangle_339" data-name="Rectangle 339" class="cls-1" transform="translate(-23800 -18240)">
            <rect class="cls-9" width="900" height="400"/>
            <rect class="cls-10" x="0.5" y="0.5" width="899" height="399"/>
        </g>
        <g id="Group_437" data-name="Group 437">
            <line id="Line_97" data-name="Line 97" class="cls-2" x2="693.654" transform="translate(-23679.215 -18124.5)"/>
            <line id="Line_149" data-name="Line 149" class="cls-2" x2="693.654" transform="translate(-23679.215 -18093.5)"/>
            <line id="Line_150" data-name="Line 150" class="cls-2" x2="693.654" transform="translate(-23679.215 -18030.5)"/>
            <line id="Line_151" data-name="Line 151" class="cls-2" x2="693.654" transform="translate(-23679.215 -17998.5)"/>
            <line id="Line_98" data-name="Line 98" class="cls-2" x2="693.654" transform="translate(-23679.215 -18061.5)"/>
            <line id="Line_99" data-name="Line 99" class="cls-2" x2="693.654" transform="translate(-23679.215 -17967.5)"/>
            <line id="Line_100" data-name="Line 100" class="cls-2" x2="693.654" transform="translate(-23679.215 -17935.5)"/>
            <line id="Line_101" data-name="Line 101" class="cls-2" x2="693.654" transform="translate(-23679.215 -17904.5)"/>
            <text id="Number_of_employees_and_contractors" data-name="Number of employees and contractors" class="cls-3" transform="translate(-23644 -18152)"><tspan x="0" y="0">Number of employees and contractors</tspan></text>
            <text id="_2007" data-name="2007" class="cls-4" transform="translate(-23423 -17886)"><tspan x="0" y="0">2007</tspan></text>
            <text id="_2003" data-name="2003" class="cls-4" transform="translate(-23587 -17886)"><tspan x="0" y="0">2003</tspan></text>
            <text id="_2011" data-name="2011" class="cls-4" transform="translate(-23259 -17886)"><tspan x="0" y="0">2011</tspan></text>
            <text id="_2001" data-name="2001" class="cls-4" transform="translate(-23669 -17886)"><tspan x="0" y="0">2001</tspan></text>
            <text id="_2009" data-name="2009" class="cls-4" transform="translate(-23341 -17886)"><tspan x="0" y="0">2009</tspan></text>
            <text id="_2005" data-name="2005" class="cls-4" transform="translate(-23505 -17886)"><tspan x="0" y="0">2005</tspan></text>
            <text id="_2013" data-name="2013" class="cls-4" transform="translate(-23177 -17886)"><tspan x="0" y="0">2013</tspan></text>
            <text id="_2008" data-name="2008" class="cls-4" transform="translate(-23382 -17886)"><tspan x="0" y="0">2008</tspan></text>
            <text id="_2004" data-name="2004" class="cls-4" transform="translate(-23546 -17886)"><tspan x="0" y="0">2004</tspan></text>
            <text id="_2012" data-name="2012" class="cls-4" transform="translate(-23218 -17886)"><tspan x="0" y="0">2012</tspan></text>
            <text id="_2002" data-name="2002" class="cls-4" transform="translate(-23628 -17886)"><tspan x="0" y="0">2002</tspan></text>
            <text id="_2010" data-name="2010" class="cls-4" transform="translate(-23300 -17886)"><tspan x="0" y="0">2010</tspan></text>
            <text id="_2006" data-name="2006" class="cls-4" transform="translate(-23464 -17886)"><tspan x="0" y="0">2006</tspan></text>
            <text id="_2014" data-name="2014" class="cls-4" transform="translate(-23136 -17886)"><tspan x="0" y="0">2014</tspan></text>
            <text id="_2015" data-name="2015" class="cls-4" transform="translate(-23095 -17886)"><tspan x="0" y="0">2015</tspan></text>
            <text id="_2016" data-name="2016" class="cls-4" transform="translate(-23054 -17886)"><tspan x="0" y="0">2016</tspan></text>
            <text id="_2017" data-name="2017" class="cls-4" transform="translate(-23013 -17886)"><tspan x="0" y="0">2017</tspan></text>
            <text id="_120" data-name="120" class="cls-4" transform="translate(-23696 -18089)"><tspan x="-18.584" y="0">120</tspan></text>
            <text id="_80" data-name="80" class="cls-4" transform="translate(-23695 -18026)"><tspan x="-12.391" y="0">80</tspan></text>
            <text id="_100" data-name="100" class="cls-4" transform="translate(-23695 -18057)"><tspan x="-18.589" y="0">100</tspan></text>
            <text id="_140" data-name="140" class="cls-4" transform="translate(-23695 -18120)"><tspan x="-18.584" y="0">140</tspan></text>
            <text id="_40" data-name="40" class="cls-4" transform="translate(-23695 -17963)"><tspan x="-12.391" y="0">40</tspan></text>
            <text id="_60" data-name="60" class="cls-4" transform="translate(-23695 -17995)"><tspan x="-12.391" y="0">60</tspan></text>
            <text id="_20" data-name="20" class="cls-4" transform="translate(-23695 -17932)"><tspan x="-12.391" y="0">20</tspan></text>
            <text id="_0" data-name="0" class="cls-5" transform="translate(-23688 -17901)"><tspan x="-6.762" y="0">0</tspan></text>
            <path id="Path_257" data-name="Path 257" class="cls-6" d="M0,0H26V13H0Z" transform="translate(-23679 -18163)"/>
            <rect id="Rectangle_340" data-name="Rectangle 340" class="cls-6" width="23" height="133" transform="translate(-23094 -18038)"/>
            <rect id="Rectangle_341" data-name="Rectangle 341" class="cls-6" width="23" height="196" transform="translate(-23053 -18101)"/>
            <rect id="Rectangle_342" data-name="Rectangle 342" class="cls-7" width="23" height="209" transform="translate(-23012 -18114)"/>
            <path id="Path_538" data-name="Path 538" class="cls-6" d="M0,.672H23L23,92.43H0Z" transform="translate(-23135 -17997.43)"/>
            <rect id="Rectangle_344" data-name="Rectangle 344" class="cls-6" width="23" height="70" transform="translate(-23176 -17975)"/>
            <path id="Path_258" data-name="Path 258" class="cls-6" d="M0-4.592H23V41.287H0Z" transform="translate(-23217 -17946.287)"/>
            <path id="Path_259" data-name="Path 259" class="cls-6" d="M0-4.523H23v66H0Z" transform="translate(-23340 -17966.477)"/>
            <path id="Path_260" data-name="Path 260" class="cls-6" d="M0,4.7H23V50.578H0Z" transform="translate(-23423 -17955.578)"/>
            <path id="Path_261" data-name="Path 261" class="cls-6" d="M0-1.99H23V42.348H0Z" transform="translate(-23546 -17947.348)"/>
            <rect id="Rectangle_345" data-name="Rectangle 345" class="cls-6" width="23" height="31" transform="translate(-23587 -17936)"/>
            <path id="Path_262" data-name="Path 262" class="cls-6" d="M0-1.059H23V35.605H0Z" transform="translate(-23505 -17940.605)"/>
            <path id="Path_263" data-name="Path 263" class="cls-6" d="M0-5.732H23V15.08H0Z" transform="translate(-23628 -17920.08)"/>
            <rect id="Rectangle_346" data-name="Rectangle 346" class="cls-6" width="23" height="18" transform="translate(-23669 -17923)"/>
            <path id="Path_264" data-name="Path 264" class="cls-6" d="M0,3.617H23V61.838H0Z" transform="translate(-23382 -17966.838)"/>
            <rect id="Rectangle_347" data-name="Rectangle 347" class="cls-6" width="23" height="34" transform="translate(-23464 -17939)"/>
            <path id="Path_265" data-name="Path 265" class="cls-6" d="M0-.943H23v48.82H0Z" transform="translate(-23258 -17952.877)"/>
            <path id="Path_266" data-name="Path 266" class="cls-6" d="M0-17.07H23V41.15H0Z" transform="translate(-23299 -17946.15)"/>
            <text id="projected" class="cls-8" transform="translate(-23009.5 -17957.5) rotate(-90)"><tspan x="18.714" y="13">projected</tspan></text>
        </g>
    </g>
</svg>
